!!!OTL: DING DING THALERING
!!!ARE: Europa, Mitteleuropa, Deutschland, Thueringen, Stotternheim
!!!SCT: K2137
!!!YEM: Copyright 1995, estate of Helmut Schaffrath.
**kern
*ICvox
*Ivox
*M2/4
*k[f#]
*G:
=1
{4dd
4b
=2
8dd
8dd
8b}
{8g
=3
8g
8a
8b
8cc
=4
4dd
4b}
=5
{8dd
8dd
8b
8b
=6
8dd
8dd
8b}
{8g
=7
8g
8a
8b
8cc
=8
4dd
4b}
=9
{8dd
8dd
8b
8b
=10
4dd
4b}
=11
{8dd
8dd
8b
8b
=12
4dd
4b}
=13
{8dd
8cc
8b
8a
=14
4g
4r}
==
!!!AGN: Kinder - Lied, Reigen, Tanz - Spiel
!!!ONB: ESAC (Essen Associative Code) Database: KINDER
!!!AMT: simple duple
!!!AIN: vox
!!!EED: Helmut Schaffrath
!!!EEV: 1.0
*-
